src/instruments/icons/Icon/img/airflow.svg

<svg xmlns="http://www.w3.org/2000/svg" viewBox="0 0 356 350.3"><style>.st1{display:inline}</style><g id="Layer_1_copy"><path d="M179.2 171.5c-71.7 6.9-124.4 49.8-145.4 69.8V343l145.4-159.5v-12z" fill="#4caced"/><path d="M189.2 307.2c5.4 4 20.5 13.1 44.7 13.1h15.3c-20-21-62.9-73.7-69.8-145.4 0 .1-28.4 78.2 9.8 132.3z" fill="#138713"/><path d="M179.4 175c6.9 71.7 49.8 124.4 69.8 145.4h101.7L191.4 175h-12z" fill="#1db71d"/><path d="M186.9 305.4s.8.7 2.3 1.9C151 253.1 179.4 175 179.4 175l.1-1.4c-21.7-1.1-67 3.7-81.6 58.8l89 73z" fill="#24e050"/><path d="M310.7 166.3c4-5.4 13.1-20.5 13.1-44.7v-15.3c-21 20-73.7 62.9-145.4 69.8.1 0 78.2 28.5 132.3-9.8z" fill="#1a90b5"/><path d="M178.5 176.1c71.7-6.9 124.4-49.8 145.4-69.8V4.6L178.5 164.1v12z" fill="#26e6ef"/><path d="M308.9 168.6s.7-.8 1.9-2.3c-54.1 38.3-132.3 9.8-132.3 9.8l-1.4-.1c-1.1 21.7 3.7 67 58.8 81.6l73-89z" fill="#2bf7f1"/><path d="M167.2 41c-5.4-4-20.5-13.1-44.7-13.1h-15.3c20 21 62.9 73.7 69.8 145.4 0-.1 28.5-78.2-9.8-132.3z" fill="#932216"/><path d="M177 173.2c-6.9-71.7-49.8-124.4-69.8-145.4H5.5L165 173.2h12z" fill="#d62816"/><path d="M169.5 42.8s-.8-.7-2.3-1.9C205.5 95 177 173.2 177 173.2l-.1 1.4c21.7 1.1 67-3.7 81.6-58.8l-89-73z" fill="#d8391e"/><path d="M46.9 181.3c-4 5.4-13.1 20.5-13.1 44.7v15.3c21-20 73.7-62.9 145.4-69.8 0 0-78.1-28.4-132.3 9.8z" fill="#4e7cce"/><path d="M48.8 179s-.7.8-1.9 2.3c54.1-38.3 132.3-9.8 132.3-9.8l1.4.1c1.1-21.7-3.7-67-58.8-81.6l-73 89z" fill="#86bfea"/><circle cx="178.8" cy="173.3" r="9.5" fill="#302c43"/></g></svg>

<?xml version="1.0" encoding="utf-8"?>
<!-- Generator: Adobe Illustrator 21.1.0, SVG Export Plug-In . SVG Version: 6.00 Build 0)  -->
<svg version="1.1" xmlns="http://www.w3.org/2000/svg" xmlns:xlink="http://www.w3.org/1999/xlink" x="0px" y="0px"
	 viewBox="0 0 356 350.3" style="enable-background:new 0 0 356 350.3;" xml:space="preserve">
<style type="text/css">
	.st0{display:none;}
	.st1{display:inline;}
	.st2{fill:#3CAAFF;}
	.st3{fill:#008A03;}
	.st4{fill:#03B803;}
	.st5{fill:#02E83E;}
	.st6{fill:#008BC4;}
	.st7{fill:#04E8FD;}
	.st8{fill:#00FFFE;}
	.st9{display:inline;fill:#961502;}
	.st10{fill:#DF1D01;}
	.st11{fill:#DE2802;}
	.st12{display:inline;fill:#3B73ED;}
	.st13{fill:#7DC1FF;}
	.st14{fill:#4CACED;}
	.st15{fill:#138713;}
	.st16{fill:#1DB71D;}
	.st17{fill:#24E050;}
	.st18{fill:#1A90B5;}
	.st19{fill:#26E6EF;}
	.st20{fill:#2BF7F1;}
	.st21{fill:#932216;}
	.st22{fill:#D62816;}
	.st23{fill:#D8391E;}
	.st24{fill:#4E7CCE;}
	.st25{fill:#86BFEA;}
	.st26{fill:#302C43;}
</style>
<g id="Layer_1" class="st0">
	<g class="st1">
		<path class="st2" d="M179.2,171.5c-71.7,6.9-124.4,49.8-145.4,69.8c0,37.4,0,101.7,0,101.7l145.4-159.5V171.5z"/>
	</g>
	<g class="st1">
		<path class="st3" d="M189.2,307.2c5.4,4,20.5,13.1,44.7,13.1c4.2,0,9.4,0,15.3,0c-20-21-62.9-73.7-69.8-145.4
			C179.4,175,151,253.1,189.2,307.2z"/>
		<g>
			<path class="st4" d="M179.4,175c6.9,71.7,49.8,124.4,69.8,145.4c37.4,0,101.7,0,101.7,0L191.4,175H179.4z"/>
		</g>
		<g>
			<path class="st5" d="M186.9,305.4c0,0,0.8,0.7,2.3,1.9C151,253.1,179.4,175,179.4,175l0.1-1.4c-21.7-1.1-67,3.7-81.6,58.8
				L186.9,305.4z"/>
		</g>
	</g>
	<g class="st1">
		<path class="st6" d="M310.7,166.3c4-5.4,13.1-20.5,13.1-44.7c0-4.2,0-9.4,0-15.3c-21,20-73.7,62.9-145.4,69.8
			C178.5,176.1,256.6,204.6,310.7,166.3z"/>
		<g>
			<path class="st7" d="M178.5,176.1c71.7-6.9,124.4-49.8,145.4-69.8c0-37.4,0-101.7,0-101.7L178.5,164.1V176.1z"/>
		</g>
		<g>
			<path class="st8" d="M308.9,168.6c0,0,0.7-0.8,1.9-2.3c-54.1,38.3-132.3,9.8-132.3,9.8l-1.4-0.1c-1.1,21.7,3.7,67,58.8,81.6
				L308.9,168.6z"/>
		</g>
	</g>
	<path class="st9" d="M167.2,41c-5.4-4-20.5-13.1-44.7-13.1c-4.2,0-9.4,0-15.3,0c20,21,62.9,73.7,69.8,145.4
		C177,173.2,205.5,95.1,167.2,41z"/>
	<g class="st1">
		<path class="st10" d="M177,173.2c-6.9-71.7-49.8-124.4-69.8-145.4c-37.4,0-101.7,0-101.7,0L165,173.2H177z"/>
	</g>
	<g class="st1">
		<path class="st11" d="M169.5,42.8c0,0-0.8-0.7-2.3-1.9c38.3,54.1,9.8,132.3,9.8,132.3l-0.1,1.4c21.7,1.1,67-3.7,81.6-58.8
			L169.5,42.8z"/>
	</g>
	<path class="st12" d="M46.9,181.3c-4,5.4-13.1,20.5-13.1,44.7c0,4.2,0,9.4,0,15.3c21-20,73.7-62.9,145.4-69.8
		C179.2,171.5,101.1,143.1,46.9,181.3z"/>
	<g class="st1">
		<path class="st13" d="M48.8,179c0,0-0.7,0.8-1.9,2.3c54.1-38.3,132.3-9.8,132.3-9.8l1.4,0.1c1.1-21.7-3.7-67-58.8-81.6L48.8,179z"
			/>
	</g>
	<circle class="st1" cx="178.8" cy="173.3" r="9.5"/>
</g>
<g id="Layer_1_copy">
	<g>
		<path class="st14" d="M179.2,171.5c-71.7,6.9-124.4,49.8-145.4,69.8c0,37.4,0,101.7,0,101.7l145.4-159.5V171.5z"/>
	</g>
	<path class="st15" d="M189.2,307.2c5.4,4,20.5,13.1,44.7,13.1c4.2,0,9.4,0,15.3,0c-20-21-62.9-73.7-69.8-145.4
		C179.4,175,151,253.1,189.2,307.2z"/>
	<g>
		<path class="st16" d="M179.4,175c6.9,71.7,49.8,124.4,69.8,145.4c37.4,0,101.7,0,101.7,0L191.4,175H179.4z"/>
	</g>
	<g>
		<path class="st17" d="M186.9,305.4c0,0,0.8,0.7,2.3,1.9C151,253.1,179.4,175,179.4,175l0.1-1.4c-21.7-1.1-67,3.7-81.6,58.8
			L186.9,305.4z"/>
	</g>
	<path class="st18" d="M310.7,166.3c4-5.4,13.1-20.5,13.1-44.7c0-4.2,0-9.4,0-15.3c-21,20-73.7,62.9-145.4,69.8
		C178.5,176.1,256.6,204.6,310.7,166.3z"/>
	<g>
		<path class="st19" d="M178.5,176.1c71.7-6.9,124.4-49.8,145.4-69.8c0-37.4,0-101.7,0-101.7L178.5,164.1V176.1z"/>
	</g>
	<g>
		<path class="st20" d="M308.9,168.6c0,0,0.7-0.8,1.9-2.3c-54.1,38.3-132.3,9.8-132.3,9.8l-1.4-0.1c-1.1,21.7,3.7,67,58.8,81.6
			L308.9,168.6z"/>
	</g>
	<path class="st21" d="M167.2,41c-5.4-4-20.5-13.1-44.7-13.1c-4.2,0-9.4,0-15.3,0c20,21,62.9,73.7,69.8,145.4
		C177,173.2,205.5,95.1,167.2,41z"/>
	<g>
		<path class="st22" d="M177,173.2c-6.9-71.7-49.8-124.4-69.8-145.4c-37.4,0-101.7,0-101.7,0L165,173.2H177z"/>
	</g>
	<g>
		<path class="st23" d="M169.5,42.8c0,0-0.8-0.7-2.3-1.9c38.3,54.1,9.8,132.3,9.8,132.3l-0.1,1.4c21.7,1.1,67-3.7,81.6-58.8
			L169.5,42.8z"/>
	</g>
	<path class="st24" d="M46.9,181.3c-4,5.4-13.1,20.5-13.1,44.7c0,4.2,0,9.4,0,15.3c21-20,73.7-62.9,145.4-69.8
		C179.2,171.5,101.1,143.1,46.9,181.3z"/>
	<g>
		<path class="st25" d="M48.8,179c0,0-0.7,0.8-1.9,2.3c54.1-38.3,132.3-9.8,132.3-9.8l1.4,0.1c1.1-21.7-3.7-67-58.8-81.6L48.8,179z"
			/>
	</g>
	<circle class="st26" cx="178.8" cy="173.3" r="9.5"/>
</g>
</svg>
